src/assets/share-icon-email-black.svg

<svg height="10" viewBox="0 0 13 10" width="13" xmlns="http://www.w3.org/2000/svg"><path d="m29.3816435 30c.8928863 0 1.6183565-.7319035 1.6183565-1.6327078v-6.7345844c0-.9008043-.7254702-1.6327078-1.6183565-1.6327078h-9.763287c-.8928863 0-1.6183565.7319035-1.6183565 1.6327078v6.7319035c0 .9008042.7254702 1.6327077 1.6183565 1.6327077h9.763287zm-9.7260834-7.7265416c-.1674162-.1447721-.1886754-.3967828-.0451758-.5656836s.3932952-.1903485.5607114-.0455764l4.3289043 3.7050938 4.3315617-3.7077748c.1674162-.1447721.4198692-.1233244.5607114.0455764.1434996.1689008.1222404.4235925-.0451758.5656837l-3.090556 2.6487935 3.1065004 2.9490617c.159444.152815.1674162.4075067.0159444.5683646-.079722.0831099-.1833606.1260054-.2896566.1260054-.0983238 0-.1966476-.0375335-.2737122-.1099196l-3.170278-3.0080429-.8849141.7587132c-.0744072.0643431-.1674162.0965147-.2577678.0965147-.093009 0-.1833606-.0321716-.2577678-.0965147l-.8875715-.7587132-3.170278 3.0107239c-.0770646.072386-.1753884.1099195-.2737122.1099195-.106296 0-.212592-.0428954-.2896566-.1260053-.1514718-.1608579-.1434996-.4155496.0159444-.5683646l3.1065004-2.9517427z" fill="#111" transform="translate(-18 -20)"/></svg>

<?xml version="1.0" encoding="UTF-8"?>
<svg width="13px" height="10px" viewBox="0 0 13 10" version="1.1" xmlns="http://www.w3.org/2000/svg" xmlns:xlink="http://www.w3.org/1999/xlink">
    <!-- Generator: Sketch 48.2 (47327) - http://www.bohemiancoding.com/sketch -->
    <title>Shape</title>
    <desc>Created with Sketch.</desc>
    <defs></defs>
    <g id="02-1-Stories-Detail-Page-option1" stroke="none" stroke-width="1" fill="none" fill-rule="evenodd" transform="translate(-378.000000, -676.000000)">
        <g id="::HEADER::" fill="#111111" fill-rule="nonzero">
            <g id="Hero" transform="translate(0.000000, 79.000000)">
                <g id="SM-icons" transform="translate(240.000000, 577.000000)">
                    <g id="Mail" transform="translate(120.000000, 0.000000)">
                        <path d="M29.3816435,30 C30.2745298,30 31,29.2680965 31,28.3672922 L31,21.6327078 C31,20.7319035 30.2745298,20 29.3816435,20 L19.6183565,20 C18.7254702,20 18,20.7319035 18,21.6327078 L18,28.3646113 C18,29.2654155 18.7254702,29.997319 19.6183565,29.997319 L29.3816435,29.997319 L29.3816435,30 Z M19.6555601,22.2734584 C19.4881439,22.1286863 19.4668847,21.8766756 19.6103843,21.7077748 C19.7538839,21.538874 20.0036795,21.5174263 20.1710957,21.6621984 L24.5,25.3672922 L28.8315617,21.6595174 C28.9989779,21.5147453 29.2514309,21.536193 29.3922731,21.7050938 C29.5357727,21.8739946 29.5145135,22.1286863 29.3470973,22.2707775 L26.2565413,24.919571 L29.3630417,27.8686327 C29.5224857,28.0214477 29.5304579,28.2761394 29.3789861,28.4369973 C29.2992641,28.5201072 29.1956255,28.5630027 29.0893295,28.5630027 C28.9910057,28.5630027 28.8926819,28.5254692 28.8156173,28.4530831 L25.6453393,25.4450402 L24.7604252,26.2037534 C24.686018,26.2680965 24.593009,26.3002681 24.5026574,26.3002681 C24.4096484,26.3002681 24.3192968,26.2680965 24.2448896,26.2037534 L23.3573181,25.4450402 L20.1870401,28.4557641 C20.1099755,28.5281501 20.0116517,28.5656836 19.9133279,28.5656836 C19.8070319,28.5656836 19.7007359,28.5227882 19.6236713,28.4396783 C19.4721995,28.2788204 19.4801717,28.0241287 19.6396157,27.8713137 L22.7461161,24.919571 L19.6555601,22.2734584 Z" id="Shape"></path>
                    </g>
                </g>
            </g>
        </g>
    </g>
</svg>
